!! 00000] TT[00
!! NN
!!!OTL: Jia nai
!!!ARE: Xinjiang, Yili (Nord)
!! Ethnic Group: Weiwuer
!! IV, 422
!!!SCT: C0042A
!!!YEM: Copyright 1995, estate of Helmut Schaffrath.
**kern
*ICvox
*Ivox
!! Mixed meters:  2/4; 3/4
*M3/4
*k[f#]
*G:
{8d
8d
=1
4d
8.g
16f#
=2
4e}
{16g
16a
16g
16b
=3
8.a
16b
16a
16dd
16b
16dd
=4
8a
8a
16b
16dd
8b
=5
[2a
=6
2a_
=7
2a]
=8
4r}
{8.r
16a
=9
8.a
16dd
8b
8dd
=10
4b
8.ee
16dd
=11
8.ee
16gg
8ee
8dd}
=12
{4b
16dd
16gg
16ee
16gg
=13
16ee
16gg
8dd
16b
16dd
16b
16a
=14
4a
8b
8dd
=15
4b
16ee
16gg
8dd}
=16
{8.b
16dd
16a
16dd
8b
=17
[2d
=18
2d_
=19
2d]}
=20
{8.d
16d
8d
16g
16g
=21
4e}
{8.g
16b
=22
8.a
16b
16a
16dd
16b
16dd
=23
4a
8.dd
16b
=24
8.a
16b
16g
16b
8a}
=25
{8.e
16g
8e
8g
=26
4e
8g
8e
=27
8.d
16g
8.e
16g
=28
4e}
{16a
16b
8a
=29
8.e
16a
32a
32e
16g
8e
=30
[2d
=31
2d_
=32
2d_
=33
8.d]
16r
4r}
==
!!!AGN: Aiqing gequ
!! +++richtige Bandangabe??+++
!!    typisch. Ungenaue Notation, weil die Stimmung sich von der der Han
!!    unterscheidet. Diese Bemerkung gilt fuer alle Volkslieder der Weiwuer
!!    Man hat dort eine eigene Notation.
!!    +++Das Lied wurde GETEILT!!! Der zweite Teil ist im folgenden Dokument
!!    unter gleicher Signatur kodiert.
!!    Wenig Verzierungen, Glissandi. Die 1 in T.2 wird hoeher gesungen.
!!    Vor- und Zwischenspiele weggelassen.
!!!ONB: ESAC (Essen Associative Code) Database: CHINA
!!!AMT: irregular
!!!AIN: vox
!!!EED: Helmut Schaffrath
!!!EEV: 1.0
*-
!!!ONB: Tied note syntax fixed by Craig Sapp, 2004/05/03/
